lib/assets/buttons/media_item_airplay.svg

<svg height="24" viewBox="0 0 24 24" width="24" xmlns="http://www.w3.org/2000/svg">
    <path d="m6.5454547 21h10.9090913l-5.454546-5.684211zm13.6363633-18h-16.3636361c-1 0-1.8181817.8526316-1.8181817 1.8947368v11.3684212c0 1.042105.8181817 1.894737 1.8181817 1.894737h3.6363636v-1.894737h-3.6363636v-11.3684212h16.3636361v11.3684212h-3.636363v1.894737h3.636363c1 0 1.818182-.852632 1.818182-1.894737v-11.3684212c0-1.0421052-.818182-1.8947368-1.818182-1.8947368z" />
</svg>

<?xml version="1.0" encoding="UTF-8" standalone="no"?>
<svg
   xmlns:dc="http://purl.org/dc/elements/1.1/"
   xmlns:cc="http://creativecommons.org/ns#"
   xmlns:rdf="http://www.w3.org/1999/02/22-rdf-syntax-ns#"
   xmlns:svg="http://www.w3.org/2000/svg"
   xmlns="http://www.w3.org/2000/svg"
   version="1.1"
   width="24"
   height="24"
   viewBox="0 0 24 24"
   id="svg2">
  <metadata
     id="metadata10">
    <rdf:RDF>
      <cc:Work
         rdf:about="">
        <dc:format>image/svg+xml</dc:format>
        <dc:type
           rdf:resource="http://purl.org/dc/dcmitype/StillImage" />
      </cc:Work>
    </rdf:RDF>
  </metadata>
  <defs
     id="defs8" />
  <path
     d="M 6.5454547,21 H 17.454546 L 12,15.315789 z M 20.181818,3 H 3.8181819 c -1,0 -1.8181817,0.8526316 -1.8181817,1.8947368 V 16.263158 c 0,1.042105 0.8181817,1.894737 1.8181817,1.894737 H 7.4545455 V 16.263158 H 3.8181819 V 4.8947368 H 20.181818 V 16.263158 h -3.636363 v 1.894737 h 3.636363 c 1,0 1.818182,-0.852632 1.818182,-1.894737 V 4.8947368 C 22,3.8526316 21.181818,3 20.181818,3 z"
     id="path4" />
</svg>
